X:13
T:Wohlfahrt 13 Op 45 No 16
C:Franz Wohlfahrt / K.H. Aiquoni
L:1/8
Q:1/4=120
M:3/4
I:linebreak $
K:C
"^13""C" (EF^FGAG) | c6 |"C" (EF^FGAG) | e6 |"G7" (dBc^cde) | (dBc^cde) |$"G" (dBc^cde) | 
(d=cBAGF) |"C" (EF^FGAG) | c6 |"C" (EF^FGAG) | e6 |$"G/D" (Bc^cdeB) |"D7" (d^c=cBcA) | 
"G" (GA^AB=AG) |"G7" (^FGAGF=F) |"C" (EF^FGAG) | c6 |$"C" (EF^FGAG) | e6 |"C?" (^cded=cB) | 
"C?" (^ABcB=AG) |"D7" (^FAcde^f) |"G" g6 |$"D7" (g^f^efaf | c6) |"G" (=ed^cd^fg) | b6 | 
"G" (Bc^cdeB) |"D7" (d^c=cBcA) |$"G" (=GBcde^f) | g6 |"G7" (a_ag=fef) | d6 |"Cm" (c'bc'd'_e'c') | 
g6 |$"Fm" (_AGFEFD) |"Cm" (GF_EDEC) |"G" (G,B,CD=E^F) | G6 |"C" (EF^FGAG) | c6 |$"F" (A_B=Bcdc) | 
a6 |"C/G" (g^fagec) |"G7" (BGFDB,G,) |"C" (CEFGAB) | c6 |] 



